dest/img/img-trust-24.svg

<svg fill="none" height="40" viewBox="0 0 98 40" width="98" xmlns="http://www.w3.org/2000/svg" xmlns:xlink="http://www.w3.org/1999/xlink"><clipPath id="a"><path d="m0 0h98v40h-98z"/></clipPath><g clip-path="url(#a)" fill="#576472"><path d="m20.2766 39.1122c-8.2253-2.5045-14.20332-10.1109-14.20332-19.1122 0-9.0968 6.10552-16.76643 14.45572-19.206402.8552-.254219.6337-.79359419-.4108-.79359419-11.10357 0-20.11826104 8.97033619-20.11826104 19.99999619 0 11.0297 9.01469104 20 20.11826104 20 1.0445 0 1.1076-.6026.1584-.8878z"/><path d="m9.90085 24.6593c-.06309-.5393-.09531-1.0774-.09531-1.6167 0-8.7794 7.08686-15.87872 15.84926-15.87872 8.287 0 10.7545 3.70842 11.0713 3.45412.3477-.2528-3.0058-7.60638-12.7172-7.60638-8.7623 0-15.84789 7.09938-15.84789 15.87868 0 2.0284.37992 3.9626 1.07532 5.7368.2846.7613.72762.7613.66452.0322z"/><path d="m16.5439 13.2174c4.112-1.8064 9.3007-1.8697 14.3927-.0632 3.4165 1.2038 5.4101 2.9161 5.5685 2.8206.2846-.1264-1.9935-3.7084-6.0747-5.2619-4.9349-1.86971-10.2484-.88645-14.108 2.1561-.443.3484-.2846.5703.2215.3484z"/><path d="m98 20.6973c0 1.1407-.9491 2.0916-2.0875 2.0916-1.1398 0-2.0875-.9186-2.0875-2.0916 0-1.1406.9169-2.0916 2.0875-2.0916s2.0875.9187 2.0875 2.0916z"/><path d="m30.0515 32.3929.2523 2.7897h4.398l-1.4875-16.1961h-6.5472l-8.2884 16.1961h4.4919l1.3921-2.7897zm-.2215-3.138h-4.0181l3.4489-7.0039h.0309z"/><path d="m40.8067 28.114h.6645l3.132-4.2788h4.0797l-4.3335 5.4517 2.6581 5.8955h-4.3348l-1.7399-4.5962h-.6323l-.98 4.5962h-3.7012l3.4153-16.1962h3.7012z"/><path d="m54.4724 35.1821h3.7012l1.4861-7.0684c.8229-3.898-.6632-4.3729-4.4597-4.3729-2.6567 0-5.2195-.0322-5.9471 3.4852h3.7012c.2215-1.0142.8538-1.2348 1.772-1.2348 1.6123 0 1.5492.6644 1.3277 1.7109l-.3799 1.8065h-.1571c-.1275-1.2994-1.772-1.2671-2.8165-1.2671-2.6876 0-4.2704.8555-4.8396 3.5806-.6001 2.8838.7599 3.5187 3.3535 3.5187 1.2969 0 3.0367-.2542 3.6381-1.8064h.1262zm-1.0444-4.6903c1.2028 0 1.9935.0942 1.8029 1.0451-.2524 1.1729-.7585 1.3949-2.3091 1.3949-.5692 0-1.6123 0-1.3599-1.2361.2215-1.0465.9492-1.2039 1.8661-1.2039z"/><path d="m65.6706 23.8353-.3477 1.5845h.1584c.7276-1.3317 2.2137-1.711 3.4797-1.711 1.5814 0 3.1628.2852 2.9413 2.2181h.1584c.537-1.6168 2.1829-2.2181 3.6059-2.2181 2.6259 0 3.7334 1.0774 3.1629 3.7084l-1.6445 7.7652h-3.7012l1.3921-6.5613c.1893-1.1729.3799-2.0607-1.0444-2.0607-1.4553 0-1.9292.951-2.1829 2.1871l-1.3599 6.4349h-3.7012l1.4552-6.8788c.1907-1.0451.2538-1.7432-1.0431-1.7432-1.5183 0-1.9935.8245-2.2781 2.1871l-1.36 6.4349h-3.7012l2.4044-11.3471z"/><path d="m85.6947 35.1821h3.7012l1.5183-7.0684c.8229-3.898-.6645-4.3729-4.4597-4.3729-2.6581 0-5.2208-.0322-5.9471 3.4852h3.7012c.2201-1.0142.8538-1.2348 1.7707-1.2348 1.6136 0 1.5505.6644 1.329 1.7109l-.3799 1.8065h-.1584c-.1262-1.2994-1.7707-1.2671-2.8152-1.2671-2.6889 0-4.2704.8555-4.8396 3.5806-.6014 2.8838.7585 3.5187 3.3522 3.5187 1.2982 0 3.038-.2542 3.6381-1.8064h.1275zm-1.0122-4.6903c1.2015 0 1.9922.0942 1.8029 1.0451-.2524 1.1729-.7585 1.3949-2.309 1.3949-.5693 0-1.6137 0-1.36-1.2361.2215-1.0465.9492-1.2039 1.8661-1.2039z"/><path d="m94.7734 35.182h-3.7012l2.3722-11.3471h3.7333z"/></g></svg>

<svg width="98" height="40" viewBox="0 0 98 40" fill="none" xmlns="http://www.w3.org/2000/svg">
<g clip-path="url(#clip0)">
<path d="M20.2766 39.1122C12.0513 36.6077 6.07328 29.0013 6.07328 20C6.07328 10.9032 12.1788 3.23357 20.529 0.793598C21.3842 0.539379 21.1627 3.8147e-06 20.1182 3.8147e-06C9.01463 3.8147e-06 -6.10352e-05 8.97034 -6.10352e-05 20C-6.10352e-05 31.0297 9.01463 40 20.1182 40C21.1627 40 21.2258 39.3974 20.2766 39.1122Z" fill="#576472"/>
<path d="M9.90085 24.6593C9.83776 24.12 9.80554 23.5819 9.80554 23.0426C9.80554 14.2632 16.8924 7.16388 25.6548 7.16388C33.9418 7.16388 36.4093 10.8723 36.7261 10.618C37.0738 10.3652 33.7203 3.01162 24.0089 3.01162C15.2466 3.01162 8.16101 10.111 8.16101 18.8903C8.16101 20.9187 8.54093 22.8529 9.23633 24.6271C9.52093 25.3884 9.96395 25.3884 9.90085 24.6593Z" fill="#576472"/>
<path d="M16.5439 13.2174C20.6559 11.411 25.8446 11.3477 30.9366 13.1542C34.3531 14.358 36.3467 16.0703 36.5051 15.9748C36.7897 15.8484 34.5116 12.2664 30.4304 10.7129C25.4955 8.84319 20.182 9.82645 16.3224 12.869C15.8794 13.2174 16.0378 13.4393 16.5439 13.2174Z" fill="#576472"/>
<path d="M98 20.6973C98 21.838 97.0509 22.7889 95.9125 22.7889C94.7727 22.7889 93.825 21.8703 93.825 20.6973C93.825 19.5567 94.7419 18.6057 95.9125 18.6057C97.0831 18.6057 98 19.5244 98 20.6973Z" fill="#576472"/>
<path d="M30.0515 32.3929L30.3038 35.1826H34.7018L33.2143 18.9865H26.6671L18.3787 35.1826H22.8706L24.2627 32.3929H30.0515ZM29.83 29.2549H25.8119L29.2608 22.251H29.2917L29.83 29.2549Z" fill="#576472"/>
<path d="M40.8067 28.114H41.4712L44.6032 23.8352H48.6829L44.3494 29.2869L47.0075 35.1824H42.6727L40.9328 30.5862H40.3005L39.3205 35.1824H35.6193L39.0346 18.9862H42.7358L40.8067 28.114Z" fill="#576472"/>
<path d="M54.4724 35.1821H58.1736L59.6597 28.1137C60.4826 24.2157 58.9965 23.7408 55.2 23.7408C52.5433 23.7408 49.9805 23.7086 49.2529 27.226H52.9541C53.1756 26.2118 53.8079 25.9912 54.7261 25.9912C56.3384 25.9912 56.2753 26.6556 56.0538 27.7021L55.6739 29.5086H55.5168C55.3893 28.2092 53.7448 28.2415 52.7003 28.2415C50.0127 28.2415 48.4299 29.097 47.8607 31.8221C47.2606 34.7059 48.6206 35.3408 51.2142 35.3408C52.5111 35.3408 54.2509 35.0866 54.8523 33.5344H54.9785L54.4724 35.1821ZM53.428 30.4918C54.6308 30.4918 55.4215 30.586 55.2309 31.5369C54.9785 32.7098 54.4724 32.9318 52.9218 32.9318C52.3526 32.9318 51.3095 32.9318 51.5619 31.6957C51.7834 30.6492 52.5111 30.4918 53.428 30.4918Z" fill="#576472"/>
<path d="M65.6706 23.8353L65.3229 25.4198H65.4813C66.2089 24.0881 67.695 23.7088 68.961 23.7088C70.5424 23.7088 72.1238 23.994 71.9023 25.9269H72.0607C72.5977 24.3101 74.2436 23.7088 75.6666 23.7088C78.2925 23.7088 79.4 24.7862 78.8295 27.4172L77.185 35.1824H73.4838L74.8759 28.6211C75.0652 27.4482 75.2558 26.5604 73.8315 26.5604C72.3762 26.5604 71.9023 27.5114 71.6486 28.7475L70.2887 35.1824H66.5875L68.0427 28.3036C68.2334 27.2585 68.2965 26.5604 66.9996 26.5604C65.4813 26.5604 65.0061 27.3849 64.7215 28.7475L63.3615 35.1824H59.6603L62.0647 23.8353H65.6706Z" fill="#576472"/>
<path d="M85.6947 35.1821H89.3959L90.9142 28.1137C91.7371 24.2157 90.2497 23.7408 86.4545 23.7408C83.7964 23.7408 81.2337 23.7086 80.5074 27.226H84.2086C84.4287 26.2118 85.0624 25.9912 85.9793 25.9912C87.5929 25.9912 87.5298 26.6556 87.3083 27.7021L86.9284 29.5086H86.77C86.6438 28.2092 84.9993 28.2415 83.9548 28.2415C81.2659 28.2415 79.6844 29.097 79.1152 31.8221C78.5138 34.7059 79.8737 35.3408 82.4674 35.3408C83.7656 35.3408 85.5054 35.0866 86.1055 33.5344H86.233L85.6947 35.1821ZM84.6825 30.4918C85.884 30.4918 86.6747 30.586 86.4854 31.5369C86.233 32.7098 85.7269 32.9318 84.1764 32.9318C83.6071 32.9318 82.5627 32.9318 82.8164 31.6957C83.0379 30.6492 83.7656 30.4918 84.6825 30.4918Z" fill="#576472"/>
<path d="M94.7734 35.182H91.0722L93.4444 23.8349H97.1777L94.7734 35.182Z" fill="#576472"/>
</g>
<defs>
<clipPath id="clip0">
<rect width="98" height="40" fill="white"/>
</clipPath>
</defs>
</svg>
